apps/scalable/AppImageLauncher.svg

<svg xmlns="http://www.w3.org/2000/svg" style="isolation:isolate" width="256" height="256" viewBox="0 0 256 256">
 <defs>
  <filter id="llOf6RIa7xngRz3zBfXLnQLVdNnSB9tM" width="400%" height="400%" x="-200%" y="-200%" color-interpolation-filters="sRGB" filterUnits="objectBoundingBox">
   <feGaussianBlur xmlns="http://www.w3.org/2000/svg" in="SourceGraphic" stdDeviation="4.294"/>
   <feOffset xmlns="http://www.w3.org/2000/svg" dx="0" dy="4" result="pf_100_offsetBlur"/>
   <feFlood xmlns="http://www.w3.org/2000/svg" flood-opacity=".4"/>
   <feComposite xmlns="http://www.w3.org/2000/svg" in2="pf_100_offsetBlur" operator="in" result="pf_100_dropShadow"/>
   <feBlend xmlns="http://www.w3.org/2000/svg" in="SourceGraphic" in2="pf_100_dropShadow" mode="normal"/>
  </filter>
 </defs>
 <g filter="url(#llOf6RIa7xngRz3zBfXLnQLVdNnSB9tM)">
  <linearGradient id="_lgradient_0" x1=".25" x2=".75" y1=".036" y2=".902" gradientTransform="matrix(244.648309,0,0,228.338396,5.675856,11.946964)" gradientUnits="userSpaceOnUse">
   <stop offset="2.174%" style="stop-color:rgb(149,117,82)"/>
   <stop offset="100%" style="stop-color:rgb(178,147,115)"/>
  </linearGradient>
  <path fill="url(#_lgradient_0)" d="M 165.684774 11.946964 C 239.740482 11.946964 250.324165 22.504162 250.324165 96.490822 L 250.324165 155.741617 C 250.324165 229.727874 239.740482 240.28536 165.684774 240.28536 L 90.315249 240.28536 C 16.259545 240.28536 5.675856 229.727874 5.675856 155.741617 L 5.675856 96.490822 C 5.675856 22.504162 16.259545 11.946964 90.315249 11.946964 L 165.684774 11.946964 Z"/>
 </g>
 <path fill="#FFFFFF" d="M 188.296252 194.920922 C 186.943253 194.721658 185.796841 194.120287 184.868123 193.124268 C 182.820027 190.926899 179.452122 184.471281 176.688274 177.44533 C 175.136907 173.501646 172.167156 164.817123 172.167156 164.224108 C 172.167156 164.037379 174.126339 162.743311 176.520908 161.348666 L 180.874634 158.813056 L 181.558253 159.454619 C 184.261839 161.992218 192.049216 173.62391 196.589 181.90523 C 198.404742 185.217499 198.587367 185.689942 198.579869 187.055737 C 198.570405 188.874476 197.998219 190.144768 196.379751 191.944903 C 194.439793 194.102579 191.096298 195.333476 188.296227 194.920822 L 188.296252 194.920922 Z M 58.897187 192.759167 C 58.978912 192.536526 60.304143 186.560314 61.841918 179.478355 C 63.379703 172.396495 64.671436 166.558962 64.712442 166.506037 C 64.850757 166.327764 78.762749 176.087295 78.759976 176.360673 C 78.758471 176.5093 74.737096 179.965819 69.823582 184.041318 C 58.761005 193.216886 58.715494 193.253197 58.897187 192.759167 Z M 73.630578 167.773344 C 69.754174 165.092888 66.613285 162.786785 66.65083 162.648604 C 66.7408 162.318322 100.042867 105.946569 100.317632 105.66006 C 100.46915 105.501982 115.020876 114.651586 115.702885 115.333538 C 115.849808 115.480573 81.224387 172.52035 80.94966 172.584119 C 80.800585 172.619037 77.506975 170.4539 73.630578 167.773344 Z M 165.031165 152.876638 C 162.373664 148.396245 160.238919 144.702659 160.287305 144.668536 C 160.760208 144.334673 170.830161 138.545688 170.937776 138.545688 C 171.105106 138.545688 179.558058 155.383397 179.434091 155.469748 C 178.343837 156.230391 170.275372 161.041862 170.104399 161.033903 C 169.971652 161.027437 167.688666 157.35703 165.031165 152.876638 L 165.031165 152.876638 Z M 55.746293 152.031733 C 55.654073 151.249403 55.614759 144.940621 55.659029 138.013058 L 55.739874 125.417382 L 69.700357 125.504429 C 77.378618 125.547803 83.693101 125.618237 83.732527 125.656736 C 83.771648 125.691555 80.076987 131.965916 75.521479 139.592243 L 67.238716 153.458411 L 61.576577 153.458411 L 55.914434 153.458411 L 55.746293 152.031733 Z M 97.62091 153.053418 C 97.62091 152.983979 101.412915 146.699471 106.047593 139.092941 L 114.474282 125.262885 L 129.429615 125.262885 L 144.384942 125.262885 L 152.380114 138.579014 C 156.777464 145.902915 160.531672 152.185035 160.722802 152.539491 L 161.070344 153.183641 L 129.345602 153.183641 C 111.897027 153.183641 97.62091 153.122658 97.62091 153.053219 L 97.62091 153.053418 Z M 179.227975 147.152316 C 177.617491 143.834973 174.586471 137.613835 172.492401 133.327433 L 168.684983 125.533876 L 179.032778 125.53308 C 184.724059 125.532881 191.850749 125.454886 194.869881 125.354807 L 200.359188 125.17743 L 200.359188 139.180983 L 200.359188 153.184436 L 191.257659 153.184436 L 182.15613 153.184436 L 179.227975 147.153012 L 179.227975 147.152316 Z M 156.124025 138.206751 C 149.994374 128.549687 143.751239 117.204306 136.247287 102.085753 C 130.294479 90.092294 124.565879 77.693542 122.201665 71.685944 C 118.776185 62.981575 117.958551 57.571269 119.991444 57.060974 C 123.243558 56.24472 129.608821 63.630947 138.669064 78.734129 C 145.766878 90.566079 157.123886 111.242022 165.790092 128.109179 C 167.398749 131.240092 169.001785 134.308132 169.352386 134.926913 L 169.989845 136.052159 L 164.588617 139.196502 C 161.617946 140.925806 159.088516 142.340746 158.96767 142.340746 C 158.846824 142.340746 157.567156 140.480423 156.124 138.206751 L 156.124025 138.206751 Z M 109.201766 108.283711 L 101.671657 103.319287 L 102.382652 102.192946 C 102.773662 101.574015 104.745927 98.429324 106.765397 95.205942 C 108.78486 91.982511 110.46875 89.306631 110.507368 89.259725 C 110.54649 89.21635 113.937954 91.386611 118.045063 94.090545 L 125.512542 99.006721 L 124.401435 100.817352 C 123.790326 101.813122 121.951268 104.82371 120.314632 107.50735 C 118.677989 110.19089 117.202335 112.580559 117.035397 112.817526 C 116.773466 113.189491 115.699148 112.567129 109.201779 108.283711 L 109.201766 108.283711 Z M 118.812316 92.165708 C 114.909848 89.616966 111.716926 87.410743 111.716926 87.262863 C 111.716926 86.187706 114.943187 83.195969 116.532929 82.796944 C 119.149188 82.140658 123.440098 83.818729 125.830103 86.433577 C 127.677294 88.454464 128.081914 89.442972 127.909448 91.513152 C 127.779313 93.075276 126.506335 96.799751 126.102573 96.799751 C 125.995393 96.799751 122.714784 94.714399 118.812316 92.165708 L 118.812316 92.165708 Z"/>
 <g opacity=".4">
  <linearGradient id="_lgradient_1" x1=".517" x2=".517" y1="0" y2="1">
   <stop offset="0%" style="stop-color:rgb(255,255,255)"/>
   <stop offset="12.5%" stop-opacity=".098" style="stop-color:rgb(255,255,255)"/>
   <stop offset="92.5%" stop-opacity=".098" style="stop-color:rgb(0,0,0)"/>
   <stop offset="100%" stop-opacity=".498" style="stop-color:rgb(0,0,0)"/>
  </linearGradient>
  <path fill="none" stroke="url(#_lgradient_1)" stroke-linecap="round" stroke-linejoin="round" stroke-width="4.077" d="M 165.68477 11.946993 C 239.740477 11.946993 250.324166 22.504193 250.324166 96.490823 L 250.324166 155.741586 C 250.324166 229.727914 239.740477 240.285417 165.68477 240.285417 L 90.315251 240.285417 C 16.259544 240.285417 5.675855 229.727914 5.675855 155.741586 L 5.675855 96.490823 C 5.675855 22.504193 16.259544 11.946993 90.315251 11.946993 L 165.68477 11.946993 Z" vector-effect="non-scaling-stroke"/>
 </g>
</svg>

<svg xmlns="http://www.w3.org/2000/svg" style="isolation:isolate" width="256" height="256"><defs><filter id="a" width="400%" height="400%" x="-200%" y="-200%" color-interpolation-filters="sRGB" filterUnits="objectBoundingBox"><feGaussianBlur xmlns="http://www.w3.org/2000/svg" in="SourceGraphic" stdDeviation="4.294"/><feOffset xmlns="http://www.w3.org/2000/svg" dy="4" result="pf_100_offsetBlur"/><feFlood xmlns="http://www.w3.org/2000/svg" flood-opacity=".4"/><feComposite xmlns="http://www.w3.org/2000/svg" in2="pf_100_offsetBlur" operator="in" result="pf_100_dropShadow"/><feBlend xmlns="http://www.w3.org/2000/svg" in="SourceGraphic" in2="pf_100_dropShadow"/></filter></defs><g filter="url(#a)"><linearGradient id="b" x1=".25" x2=".75" y1=".036" y2=".902" gradientTransform="matrix(244.6483 0 0 228.3384 5.676 11.947)" gradientUnits="userSpaceOnUse"><stop offset="2.174%" stop-color="#957552"/><stop offset="100%" stop-color="#b29373"/></linearGradient><path fill="url(#b)" d="M165.685 11.947c74.055 0 84.64 10.557 84.64 84.544v59.25c0 73.987-10.585 84.544-84.64 84.544h-75.37c-74.055 0-84.64-10.557-84.64-84.543V96.49c0-73.987 10.585-84.544 84.64-84.544h75.37z"/></g><path fill="#FFF" d="M188.296 194.92c-1.353-.198-2.5-.8-3.428-1.796-2.048-2.197-5.416-8.653-8.18-15.679-1.551-3.943-4.52-12.628-4.52-13.22 0-.188 1.958-1.482 4.353-2.876l4.354-2.536.683.642c2.704 2.537 10.491 14.169 15.031 22.45 1.816 3.312 1.998 3.785 1.99 5.15-.009 1.82-.58 3.09-2.2 4.89-1.94 2.158-5.283 3.388-8.083 2.976zm-129.399-2.16c.082-.223 1.407-6.2 2.945-13.282 1.538-7.082 2.83-12.919 2.87-12.972.139-.178 14.05 9.581 14.048 9.855-.002.148-4.023 3.605-8.936 7.68-11.063 9.176-11.109 9.212-10.927 8.718zm14.734-24.987c-3.877-2.68-7.018-4.986-6.98-5.124.09-.33 33.392-56.702 33.667-56.989.151-.158 14.703 8.992 15.385 9.674.147.147-34.479 57.186-34.753 57.25-.15.035-3.443-2.13-7.32-4.81zm91.4-14.896c-2.657-4.48-4.792-8.174-4.744-8.208.473-.334 10.543-6.123 10.65-6.123.168 0 8.621 16.837 8.497 16.924-1.09.76-9.159 5.572-9.33 5.564-.132-.007-2.415-3.677-5.073-8.157zm-109.285-.845c-.092-.783-.131-7.091-.087-14.019l.08-12.596 13.961.087c7.679.044 13.993.114 14.033.153.039.035-3.656 6.309-8.212 13.935l-8.282 13.866H55.914l-.168-1.426zm41.875 1.021c0-.069 3.792-6.354 8.427-13.96l8.426-13.83h29.911l7.995 13.316c4.397 7.324 8.152 13.606 8.343 13.96l.347.645h-31.724c-17.449 0-31.725-.061-31.725-.13zm81.607-5.9c-1.61-3.318-4.642-9.54-6.736-13.826l-3.807-7.793h10.348c5.691-.001 12.818-.08 15.837-.18l5.49-.177V153.184h-18.204l-2.928-6.031zm-23.104-8.946c-6.13-9.657-12.373-21.003-19.877-36.121-5.953-11.994-11.681-24.392-14.045-30.4-3.426-8.704-4.243-14.115-2.21-14.625 3.252-.816 9.617 6.57 18.677 21.673 7.098 11.832 18.455 32.508 27.121 49.375 1.609 3.131 3.212 6.2 3.562 6.818l.638 1.125-5.401 3.145c-2.971 1.729-5.5 3.144-5.621 3.144-.121 0-1.4-1.86-2.844-4.134zm-46.922-29.923l-7.53-4.965.71-1.126c.392-.619 2.364-3.764 4.383-6.987a899.98 899.98 0 0 1 3.742-5.946c.04-.044 3.431 2.127 7.538 4.83l7.468 4.917-1.112 1.81c-.61.996-2.45 4.007-4.086 6.69-1.637 2.684-3.113 5.074-3.28 5.31-.262.372-1.336-.25-7.833-4.533zm9.61-16.118c-3.902-2.549-7.095-4.755-7.095-4.903 0-1.075 3.226-4.067 4.816-4.466 2.616-.656 6.907 1.022 9.297 3.637 1.847 2.02 2.252 3.009 2.08 5.08-.13 1.561-1.404 5.286-1.807 5.286-.108 0-3.388-2.086-7.29-4.634z"/><g opacity=".4"><linearGradient id="c" x1=".517" x2=".517" y2="1"><stop offset="0%" stop-color="#fff"/><stop offset="12.5%" stop-opacity=".098" stop-color="#fff"/><stop offset="92.5%" stop-opacity=".098"/><stop offset="100%" stop-opacity=".498"/></linearGradient><path fill="none" stroke="url(#c)" stroke-linecap="round" stroke-linejoin="round" stroke-width="4.077" d="M165.685 11.947c74.055 0 84.64 10.557 84.64 84.544v59.25c0 73.987-10.585 84.544-84.64 84.544h-75.37c-74.055 0-84.64-10.557-84.64-84.543V96.49c0-73.987 10.585-84.544 84.64-84.544h75.37z" vector-effect="non-scaling-stroke"/></g></svg>
